X:98
T:score185
L:1/8
Q:1/4=96
M:3/4
I:linebreak $
K:G
 G4 A2 | (B4 c2) | d2 (ed) (^c=c) | (c2 B2) z2 |$ (c2- cA) dc | B2- B/G/e/d/ (c/B/)A/G/ | %6
 (Ee) dc (EF) | G2 z2 z2 |] %8
